X: 42
T: Tea Chest, The
C: Steve Hodgskiss
M: 6/8
L: 1/8
R: Jig
K: G
|:"G"GAG "Am"G2G|"G/B"BAG Bcd|"C"e2e "G/B"dBd|"Am"edB "D"A3|"G"GAG "Am"GAG|"G/B"BAG Bcd|
"C"ege |"D"dBA|"G"B2G G2G:||:"C"efg "G/B"d2g|"C"efg "G/B"d3|"C"efg "G/B"dga|"Am"bag "D"e2d|
"C"egg "G/B"dgg|"Am"egg "G/B"d3|"C"ege "D"dBA|1"G"B2G G2G:|2 B2G-G2A|
|:"Em"BAG BAG|"C"cAG cAG|"G/B"dAG dAG|"D"A2 A-A3|"Em"BAG BAG|
"C"c3 B2c|1"Am"dBc dcB|"D"A3-A2A:|2"Am"dBc "G/B"dBc|"C"d ze "D"dBA|]
